neru-classic-light/22x22/panel/audio-input-microphone-muted.svg

<svg xmlns="http://www.w3.org/2000/svg" width="22" height="22" version="1.1">
 <defs>
  <style id="current-color-scheme" type="text/css">
   .ColorScheme-Text { color:#5c616c; } .ColorScheme-Highlight { color:#5294e2; }
  </style>
 </defs>
 <g transform="translate(-225 -647.36)">
  <path style="fill:currentColor" class="ColorScheme-Text" d="m11 3c-1.246 0-2.3111 0.7515-2.7656 1.8281v0.002l5.7656 5.7639v-4.594c0-1.6621-1.338-3-3-3zm-5.6562 0.9375l-1.4063 1.4063 4.0625 4.0624v1.5938c0 1.662 1.3379 3 3 3 0.466 0 0.901-0.113 1.291-0.303l0.729 0.729c-0.592 0.352-1.271 0.574-2.02 0.574-2.2334 0-4-1.767-4-4v-1h-2v1c0 2.969 2.1624 5.432 5 5.906v2.094h2v-2.094c0.91-0.152 1.738-0.527 2.459-1.041l2.197 2.197 1.406-1.406-12.718-12.718zm9.6562 6.0625v1c0 0.186-0.029 0.362-0.053 0.541l1.637 1.637c0.264-0.676 0.416-1.409 0.416-2.178v-1h-2z" transform="translate(225 647.36)"/>
 </g>
</svg>

<?xml version="1.0" encoding="UTF-8" standalone="no"?>
<svg
   xmlns:dc="http://purl.org/dc/elements/1.1/"
   xmlns:cc="http://creativecommons.org/ns#"
   xmlns:rdf="http://www.w3.org/1999/02/22-rdf-syntax-ns#"
   xmlns:svg="http://www.w3.org/2000/svg"
   xmlns="http://www.w3.org/2000/svg"
   xmlns:sodipodi="http://sodipodi.sourceforge.net/DTD/sodipodi-0.dtd"
   xmlns:inkscape="http://www.inkscape.org/namespaces/inkscape"
   width="22"
   height="22"
   version="1.1"
   id="svg9"
   sodipodi:docname="audio-input-microphone-muted.svg"
   inkscape:version="0.92.4 5da689c313, 2019-01-14">
  <metadata
     id="metadata13">
    <rdf:RDF>
      <cc:Work
         rdf:about="">
        <dc:format>image/svg+xml</dc:format>
        <dc:type
           rdf:resource="http://purl.org/dc/dcmitype/StillImage" />
      </cc:Work>
    </rdf:RDF>
  </metadata>
  <sodipodi:namedview
     pagecolor="#ffffff"
     bordercolor="#666666"
     borderopacity="1"
     objecttolerance="10"
     gridtolerance="10"
     guidetolerance="10"
     inkscape:pageopacity="0"
     inkscape:pageshadow="2"
     inkscape:window-width="640"
     inkscape:window-height="515"
     id="namedview11"
     showgrid="false"
     inkscape:zoom="10.727273"
     inkscape:cx="11"
     inkscape:cy="11"
     inkscape:window-x="376"
     inkscape:window-y="201"
     inkscape:window-maximized="0"
     inkscape:current-layer="g7" />
  <defs
     id="defs3">
    <style
       id="current-color-scheme"
       type="text/css">
   .ColorScheme-Text { color:#1e333d; } .ColorScheme-Highlight { color:#3fb7ff; }
  </style>
  </defs>
  <g
     transform="translate(-225,-647.36)"
     id="g7">
    <path
       style="color:#1e333d;fill:#1e333d;fill-opacity:1"
       class="ColorScheme-Text"
       d="M 11,3 C 9.754,3 8.6889,3.7515 8.2344,4.8281 v 0.002 L 14,10.594 V 6 C 14,4.3379 12.662,3 11,3 Z M 5.3438,3.9375 3.9375,5.3438 8,9.4062 V 11 c 0,1.662 1.3379,3 3,3 0.466,0 0.901,-0.113 1.291,-0.303 l 0.729,0.729 C 12.428,14.778 11.749,15 11,15 8.7666,15 7,13.233 7,11 V 10 H 5 v 1 c 0,2.969 2.1624,5.432 5,5.906 V 19 h 2 v -2.094 c 0.91,-0.152 1.738,-0.527 2.459,-1.041 l 2.197,2.197 1.406,-1.406 L 5.344,3.938 Z M 15,10 v 1 c 0,0.186 -0.029,0.362 -0.053,0.541 l 1.637,1.637 C 16.848,12.502 17,11.769 17,11 v -1 z"
       transform="translate(225,647.36)"
       id="path5"
       inkscape:connector-curvature="0" />
  </g>
</svg>
